X:1
T:Title
%%score { ( 1 4 ) | ( 2 3 ) }
L:1/8
M:6/4
K:C
V:1 treble nm="Grand Piano"
V:4 treble 
V:2 bass 
V:3 bass 
V:1
 z6 z4[Q:1/4=114] [EG]2 | [G,EG]2 [EA]2 [EB]2 [CEc]2 [G,G]2 [A,^FA]2 | [CFc]6 [B,FB]4 [FG]2 | %3
 [B,FB]2 [Fd]2 [FB]2 [A,FA]2 [FB]2 [FA]2 |[M:5/4] [G,EG]2- [G,EG]2- [G,EG]6 |[M:1/4] [EG]2 | %6
[M:6/4] [G,EG]2 [EA]2 [EB]2 [CEc]2 [G,G]2 [A,^FA]2 | [B,FB]6 [DFd]4 [Fd]2 | %8
 [D^Fd]2 [FA]2 [FB]2 [CFc]2 [FB]2 [FA]2 |[M:5/4] [B,FB]2- [B,FB]2- [B,FB]6 |[M:1/4] G2 | %11
[M:6/4] z2 G4- G4 z2 | z2 B4- B4 z2 | B2 c2 d2 B2 c2 [Ad]2 |[M:5/4] [^Ge]2- [Ge]2- [Ge]6 | %15
[M:1/4] e2 |[M:6/4] e2 A2 e2 [^Fe]2 [Fd]2 [Fd]2 | d2 G2 d2 c4 A2 | %18
[M:13/8] G2 G z z/ c-<cB-<BB z/ z d2[Q:1/4=112][Q:1/4=110][Q:1/4=109][Q:1/4=107][Q:1/4=105][Q:1/4=103][Q:1/4=102][Q:1/4=100][Q:1/4=98][Q:1/4=96][Q:1/4=94][Q:1/4=93][Q:1/4=91][Q:1/4=89][Q:1/4=87] | %19
[M:5/4] [Ec]2- [Ec]2- [Ec]6 |] %20
V:2
 z6 z4 G,2 | z2 A,2 B,2 C,2 E,2 _E,2 | D,6 G,4 G,2 | z2 D2 B,2 z2 B,2 A,2 |[M:5/4] C,2- C,2- C,6 | %5
[M:1/4] G,2 |[M:6/4] z2 A,2 B,2 C,2 E,2 _E,2 | D,6 z4 D2 | z2 A,2 B,2 z2 B,2 A,2 | %9
[M:5/4] G,,2- G,,2- G,,6 |[M:1/4] B,2 |[M:6/4] C2 E2 [C,C]2 [C,C]2 [C,C]2[K:treble] E2 | %12
 F2 F2 [G,D]2 [G,D]2 [G,D]2 [G,DF]2 | [G,DF]2 [G,CE]2 [G,B,F]2 [G,DF]2[K:bass] [A,CE]2 [F,A,]2 | %14
[M:5/4] [E,B,]2- [E,B,]2- [E,B,]6 |[M:1/4][K:treble] [A,^CG]2 | %16
[M:6/4] [A,^CG]2 [A,CG]2 [A,CG]2[K:bass] [D,=C]2 [D,C]2 [D,C]2 | %17
 [G,B,F]2 [G,B,F]2 [^G,B,F]2[K:bass] [A,CE]4 [^F,C_E]2 | %18
[M:13/8][K:treble] [G,CE]2 [G,CE] z z/ [G,EG]-<[G,EG][G,DF]-<[G,DF][G,DF] z/ z [G,B,F]2 | %19
[M:5/4][K:bass] [C,G,C]2- [C,G,C]2- [C,G,C]6 |] %20
V:3
 x12 | C,6 z6 | x12 | D,6 G,,6 |[M:5/4] x10 |[M:1/4] x2 |[M:6/4] C,6 z6 | z6 B,,6 | A,,6 D,6 | %9
[M:5/4] x10 |[M:1/4] x2 |[M:6/4] x10[K:treble] x2 | x12 | x8[K:bass] x4 |[M:5/4] x10 | %15
[M:1/4][K:treble] x2 |[M:6/4] x6[K:bass] x6 | x6[K:bass] x6 |[M:13/8][K:treble] x13 | %19
[M:5/4][K:bass] x10 |] %20
V:4
 x12 | x12 | x12 | x12 |[M:5/4] x10 |[M:1/4] x2 |[M:6/4] x12 | x12 | x12 |[M:5/4] x10 |[M:1/4] x2 | %11
[M:6/4] .E4 E2 E2 E2 G2 | .G4 F2 F2 F2 B2 | x12 |[M:5/4] x10 |[M:1/4] x2 |[M:6/4] x12 | x12 | %18
[M:13/8] x13 |[M:5/4] x10 |] %20

